extensions/content/explorer/asset/icons/menu/svg/edit.svg

<?xml version="1.0" encoding="UTF-8" standalone="no"?>
<svg
   xmlns:dc="http://purl.org/dc/elements/1.1/"
   xmlns:cc="http://creativecommons.org/ns#"
   xmlns:rdf="http://www.w3.org/1999/02/22-rdf-syntax-ns#"
   xmlns:svg="http://www.w3.org/2000/svg"
   xmlns="http://www.w3.org/2000/svg"
   xmlns:sodipodi="http://sodipodi.sourceforge.net/DTD/sodipodi-0.dtd"
   xmlns:inkscape="http://www.inkscape.org/namespaces/inkscape"
   id="edit"
   width="100%"
   height="100%"
   viewBox="0 0 16 16"
   xml:space="preserve">
   <defs
     id="defs21" /><sodipodi:namedview
     pagecolor="#ffffff"
     bordercolor="#666666"
     borderopacity="1"
     objecttolerance="10"
     gridtolerance="10"
     guidetolerance="10"
     inkscape:pageopacity="0"
     inkscape:pageshadow="2"
     inkscape:window-width="1301"
     inkscape:window-height="761"
     id="namedview19"
     showgrid="false"
     inkscape:zoom="4.3703704"
     inkscape:cx="49.881357"
     inkscape:cy="14.644069"
     inkscape:window-x="135"
     inkscape:window-y="51"
     inkscape:window-maximized="0"
     inkscape:current-layer="edit" /><g
     id="g3351"
     transform="matrix(0.06051279,0,0,0.06051279,-4.4366,-5.40339)"
     fill="currentColor"><path
       d="m 348.78516,23.511719 c -6.72541,0.05397 -13.55088,2.961 -20.2793,8.796875 -8.93461,7.762857 -17.1377,16.405249 -26.51172,25.486328 l 72.50195,68.546878 c 6.73758,-7.17698 15.67271,-15.67288 23.58203,-25.19336 10.83871,-13.182213 9.52023,-29.731762 -2.49023,-42.035159 -8.20226,-8.348733 -16.40516,-16.698126 -24.60742,-24.90039 -7.08086,-7.158673 -14.57319,-10.762343 -22.19531,-10.701172 z M 292.32812,69.658203 58.123047,308.40234 c 20.945068,21.38448 41.451385,42.47681 62.103513,63.42188 6.44464,6.5911 6.73704,6.4446 13.47461,-0.29297 74.11332,-75.57801 148.37301,-151.15637 222.48633,-226.73437 1.46469,-1.4647 2.92984,-3.22285 4.39453,-4.98047 L 292.32812,69.658203 Z M 47.285156,321.87891 c -2.92938,11.86399 -6.152712,25.63033 -9.667968,39.25195 -3.954664,15.67218 -8.055118,31.19889 -12.15625,46.72461 l 0,2.92969 c 9.666954,-2.34351 19.479529,-4.3948 29.146484,-6.88477 20.212723,-5.12641 40.426133,-10.39902 62.396488,-15.96484 L 47.285156,321.87891 Z"
       transform="matrix(0.68273828,0,0,0.68273828,58.416786,73.241521)"
       id="path9"
       inkscape:connector-curvature="0" /></g></svg>

<?xml version="1.0" encoding="UTF-8" standalone="no"?>
<svg
   xmlns:dc="http://purl.org/dc/elements/1.1/"
   xmlns:cc="http://creativecommons.org/ns#"
   xmlns:rdf="http://www.w3.org/1999/02/22-rdf-syntax-ns#"
   xmlns:svg="http://www.w3.org/2000/svg"
   xmlns="http://www.w3.org/2000/svg"
   xmlns:sodipodi="http://sodipodi.sourceforge.net/DTD/sodipodi-0.dtd"
   xmlns:inkscape="http://www.inkscape.org/namespaces/inkscape"
   version="1.1"
   id="edit"
   x="0px"
   y="0px"
   width="100%"
   height="100%"
   viewBox="0 0 432 432"
   style="enable-background:new 0 0 432 432;"
   xml:space="preserve"><defs
     id="defs21" /><sodipodi:namedview
     pagecolor="#ffffff"
     bordercolor="#666666"
     borderopacity="1"
     objecttolerance="10"
     gridtolerance="10"
     guidetolerance="10"
     inkscape:pageopacity="0"
     inkscape:pageshadow="2"
     inkscape:window-width="1301"
     inkscape:window-height="761"
     id="namedview19"
     showgrid="false"
     inkscape:zoom="1.0925926"
     inkscape:cx="216"
     inkscape:cy="216"
     inkscape:window-x="135"
     inkscape:window-y="51"
     inkscape:window-maximized="0"
     inkscape:current-layer="edit" /><g
     fill="currentColor"
     id="g3351"
     transform="matrix(1.4646901,0,0,1.4646901,-85.562488,-107.27613)"><path
       d="M 348.78516 23.511719 C 342.05975 23.565693 335.23428 26.472719 328.50586 32.308594 C 319.57125 40.071451 311.36816 48.713843 301.99414 57.794922 L 374.49609 126.3418 C 381.23367 119.16482 390.1688 110.66892 398.07812 101.14844 C 408.91683 87.966227 407.59835 71.416678 395.58789 59.113281 C 387.38563 50.764548 379.18273 42.415155 370.98047 34.212891 C 363.89961 27.054218 356.40728 23.450548 348.78516 23.511719 z M 292.32812 69.658203 L 58.123047 308.40234 C 79.068115 329.78682 99.574432 350.87915 120.22656 371.82422 C 126.6712 378.41532 126.9636 378.26882 133.70117 371.53125 C 207.81449 295.95324 282.07418 220.37488 356.1875 144.79688 C 357.65219 143.33218 359.11734 141.57403 360.58203 139.81641 L 292.32812 69.658203 z M 47.285156 321.87891 C 44.355776 333.7429 41.132444 347.50924 37.617188 361.13086 C 33.662524 376.80304 29.56207 392.32975 25.460938 407.85547 L 25.460938 410.78516 C 35.127892 408.44165 44.940467 406.39036 54.607422 403.90039 C 74.820145 398.77398 95.033555 393.50137 117.00391 387.93555 L 47.285156 321.87891 z "
       transform="matrix(0.68273828,0,0,0.68273828,58.416786,73.241521)"
       id="path9" /></g></svg>
